packages/astro-components-stencil/src/icons/text-rotation-none.svg

<svg xmlns="http://www.w3.org/2000/svg" viewBox="0 0 24 24"><g xmlns="http://www.w3.org/2000/svg" id="text-rotation-none" fill-rule="nonzero">
            <path d="M20.65 17.65l-1.79-1.79a.501.501 0 00-.86.35V17H6c-.55 0-1 .45-1 1s.45 1 1 1h12v.79c0 .45.54.67.85.35l1.79-1.79c.2-.19.2-.51.01-.7zM9.5 11.8h5l.66 1.6c.15.36.5.6.89.6.69 0 1.15-.71.88-1.34l-3.88-8.97C12.87 3.27 12.46 3 12 3c-.46 0-.87.27-1.05.69l-3.88 8.97c-.27.63.2 1.34.89 1.34.39 0 .74-.24.89-.6l.65-1.6zM12 4.98L13.87 10h-3.74L12 4.98z"/>
        </g></svg>

<svg width="24" height="24" viewBox="0 0 24 24" fill="none" xmlns="http://www.w3.org/2000/svg">
<path fill-rule="evenodd" clip-rule="evenodd" d="M14.5 11.8L15.16 13.4C15.31 13.76 15.66 14 16.05 14C16.74 14 17.2 13.29 16.93 12.66L13.05 3.69C12.87 3.27 12.46 3 12 3C11.54 3 11.13 3.27 10.95 3.69L7.07 12.66C6.8 13.29 7.27 14 7.96 14C8.35 14 8.7 13.76 8.85 13.4L9.5 11.8H14.5ZM20.65 17.65L18.86 15.86C18.54 15.54 18 15.76 18 16.21V17H6C5.45 17 5 17.45 5 18C5 18.55 5.45 19 6 19H18V19.79C18 20.24 18.54 20.46 18.85 20.14L20.64 18.35C20.84 18.16 20.84 17.84 20.65 17.65ZM13.87 10L12 4.98L10.13 10H13.87Z" fill="black"/>
</svg>
